src/lib/packages/icons/src/assets/filled/video-slash.svg

<svg width="24" height="24" viewBox="0 0 24 24" fill="none" xmlns="http://www.w3.org/2000/svg">
<path d="M22 7.56008V16.44C22 17.072 21.2689 17.4221 20.7759 17.0271L18.6121 15.2901C18.5411 15.2331 18.5 15.1469 18.5 15.0559V9.62405C18.5 9.54405 18.5319 9.46813 18.5879 9.41213L21.0869 6.91311C21.2029 6.79711 21.349 6.81402 21.394 6.82302C21.723 6.88902 22 7.16908 22 7.56008ZM16.51 11.49L9.48999 18.51C9.29899 18.737 9.49696 19 9.70996 19H14C16 19 17 18 17 16V11.7339C17 11.3919 16.654 11.346 16.51 11.49ZM21.53 2.46999C21.237 2.17699 20.762 2.17699 20.469 2.46999L16.635 6.30398C16.188 5.44098 15.314 5.00002 13.999 5.00002H4.99902C2.99902 5.00002 1.99902 6.00002 1.99902 8.00002V16C1.99902 17.646 2.68797 18.604 4.04297 18.895L2.46802 20.47C2.17502 20.763 2.17502 21.238 2.46802 21.531C2.61402 21.677 2.80605 21.751 2.99805 21.751C3.19005 21.751 3.38208 21.678 3.52808 21.531L21.5281 3.53103C21.8231 3.23703 21.823 2.76299 21.53 2.46999Z" fill="currentColor"/>
</svg>

<svg xmlns="http://www.w3.org/2000/svg" width="24" height="24" fill="none"><path fill="currentColor" d="M22 7.56v8.88a.753.753 0 0 1-1.224.587l-2.164-1.737a.3.3 0 0 1-.112-.234V9.624a.3.3 0 0 1 .088-.212l2.499-2.499a.342.342 0 0 1 .307-.09.745.745 0 0 1 .606.737Zm-5.49 3.93-7.02 7.02c-.191.227.007.49.22.49H14c2 0 3-1 3-3v-4.266a.293.293 0 0 0-.49-.244Zm5.02-9.02a.75.75 0 0 0-1.061 0l-3.834 3.834C16.188 5.441 15.314 5 13.999 5h-9c-2 0-3 1-3 3v8c0 1.646.689 2.604 2.044 2.895L2.468 20.47a.75.75 0 0 0 1.06 1.061l18-18a.748.748 0 0 0 .002-1.061Z"/></svg>
